papirus/16x16/mimetypes/application-pdf.svg

<?xml version="1.0" encoding="UTF-8" standalone="no"?>
<svg
   xmlns:dc="http://purl.org/dc/elements/1.1/"
   xmlns:cc="http://creativecommons.org/ns#"
   xmlns:rdf="http://www.w3.org/1999/02/22-rdf-syntax-ns#"
   xmlns:svg="http://www.w3.org/2000/svg"
   xmlns="http://www.w3.org/2000/svg"
   xmlns:sodipodi="http://sodipodi.sourceforge.net/DTD/sodipodi-0.dtd"
   xmlns:inkscape="http://www.inkscape.org/namespaces/inkscape"
   id="svg2"
   height="16px"
   width="16px"
   version="1.1"
   viewBox="0 0 16 16"
   inkscape:version="0.91 r"
   sodipodi:docname="application-pdf.svg">
  <defs
     id="defs11" />
  <sodipodi:namedview
     pagecolor="#ffffff"
     bordercolor="#666666"
     borderopacity="1"
     objecttolerance="10"
     gridtolerance="10"
     guidetolerance="10"
     inkscape:pageopacity="0"
     inkscape:pageshadow="2"
     inkscape:window-width="1535"
     inkscape:window-height="876"
     id="namedview9"
     showgrid="false"
     inkscape:zoom="14.75"
     inkscape:cx="8"
     inkscape:cy="8"
     inkscape:window-x="65"
     inkscape:window-y="24"
     inkscape:window-maximized="1"
     inkscape:current-layer="svg2" />
  <metadata
     id="metadata17">
    <rdf:RDF>
      <cc:Work
         rdf:about="">
        <dc:format>image/svg+xml</dc:format>
        <dc:type
           rdf:resource="http://purl.org/dc/dcmitype/StillImage" />
      </cc:Work>
    </rdf:RDF>
  </metadata>
  <path
     style="fill:#bf352e"
     inkscape:connector-curvature="0"
     d="M 2.75,1 C 2.33276,1 2,1.33276 2,1.75 l 0,13.5 C 2,15.667192 2.332808,16 2.75,16 l 10.5,0 C 13.6676,16 14,15.6676 14,15.25 L 14,5.5 9.875,5.125 9.5,1 Z"
     id="path5" />
  <path
     style="fill:#f36861"
     inkscape:connector-curvature="0"
     d="m 9.5,1 0,3.75 c 0,0.41256 0.33744,0.75 0.75,0.75 l 3.75,0 z"
     id="path7" />
  <path
     style="fill:#ffffff"
     inkscape:connector-curvature="0"
     d="m 7.5091266,6.0000035 c -0.1800232,0 -0.3550284,0.092061 -0.3950322,0.2454935 -0.1550225,0.5830307 0.014977,1.4882798 0.3050526,2.6134912 l -0.085,0.2199623 C 7.1140944,9.6313435 6.8340042,10.1785 6.5889893,10.669486 5.5839672,12.67926 4.8038622,13.768597 4.2838775,13.840608 l -0.005,-0.02047 c -0.01,-0.250614 0.4400412,-0.900144 1.0551003,-1.411555 0.065006,-0.05625 0.3400255,-0.322206 0.3400255,-0.322206 0,0 -0.3700315,0.199458 -0.4550442,0.250613 -0.7650636,0.465417 -1.1500981,0.935952 -1.2101101,1.247932 -0.01997,0.0982 -0.00998,0.210796 0.070022,0.256623 l 0.2000188,0.1023 c 0.534962,0.271025 1.1899994,-0.445162 2.0650893,-2.015012 0.8900673,-0.301138 2.0051797,-0.582637 3.0153223,-0.731898 0.9050836,0.526784 1.9451426,0.777396 2.3451796,0.669995 0.07501,-0.02047 0.15501,-0.08183 0.195014,-0.138092 0.03001,-0.05114 0.075,-0.255719 0.075,-0.255719 0,0 -0.075,0.1023 -0.135014,0.132973 -0.255026,0.122746 -1.050095,-0.08183 -1.870127,-0.490988 0.710069,-0.07671 1.300089,-0.08183 1.615127,0.02047 0.400037,0.132972 0.400037,0.265944 0.395032,0.296634 0.0051,-0.02487 0.02048,-0.112599 0.02048,-0.153188 -0.01024,-0.09689 -0.03968,-0.184611 -0.11009,-0.255836 -0.149774,-0.15345 -0.514608,-0.225069 -1.015135,-0.235282 -0.374947,0 -0.824909,0.03063 -1.3149397,0.102259 C 9.3397791,10.757136 9.0997566,10.614028 8.9146513,10.434917 8.4397268,9.9798047 8.0395613,9.3506866 7.7945464,8.6449746 c 0.015105,-0.066512 0.030083,-0.1330248 0.04506,-0.1995372 0.070023,-0.3171121 0.1200753,-1.3603613 0.1200753,-1.3603613 0,0 -0.1950135,0.7825155 -0.2250195,0.9001429 -0.020098,0.076594 -0.04506,0.1584251 -0.075015,0.2402563 C 7.5096173,7.6885319 7.4346023,7.16167 7.4346023,6.7679639 c 0,-0.1125171 0.01,-0.332444 0.040004,-0.5012127 0.015105,-0.1228121 0.060038,-0.1893245 0.1050978,-0.2199621 0.09001,0.020458 0.190021,0.1636623 0.2900239,0.3989302 0.090007,0.1994586 0.085008,0.4347265 0.085008,0.5830439 0,0 0.1000093,-0.3631209 0.075007,-0.5728182 C 8.0146374,6.3280264 7.8996826,6.0007018 7.6446828,6.0007018 Z m 0.089992,3.2630343 C 7.859111,9.8001122 8.2192087,10.311524 8.6942612,10.72068 8.799231,10.81272 8.9091933,10.899661 9.0242761,10.981493 8.1641891,11.145155 7.2641113,11.375303 6.4240967,11.733318 6.5791064,11.457135 6.7441266,11.1605 6.9091469,10.833175 7.2340413,10.204188 7.434124,9.7234134 7.5991314,9.263064 Z"
     id="path9" />
  <path
     style="fill:#ffffff;fill-opacity:0.10196001"
     inkscape:connector-curvature="0"
     d="M 2.75,1 C 2.33276,1 2,1.33276 2,1.75 l 0,0.6 C 2,1.93276 2.33276,1.6 2.75,1.6 l 6.75,0 0,-0.6 z"
     id="path11" />
</svg>

<?xml version="1.0" encoding="UTF-8" standalone="no"?>
<svg id="svg2" xmlns:rdf="http://www.w3.org/1999/02/22-rdf-syntax-ns#" xmlns="http://www.w3.org/2000/svg" height="16px" width="16px" version="1.1" xmlns:cc="http://creativecommons.org/ns#" viewBox="0 0 16 16" xmlns:dc="http://purl.org/dc/elements/1.1/">
 <metadata id="metadata17">
  <rdf:RDF>
   <cc:Work rdf:about="">
    <dc:format>image/svg+xml</dc:format>
    <dc:type rdf:resource="http://purl.org/dc/dcmitype/StillImage"/>
   </cc:Work>
  </rdf:RDF>
 </metadata>
 <path id="path5" fill="#bf352e" d="m2.75 1c-0.4172 0-0.75 0.3328-0.75 0.75v13.5c0 0.417 0.3328 0.75 0.75 0.75h10.5c0.418 0 0.75-0.332 0.75-0.75v-9.75l-4.125-0.375-0.375-4.125z"/>
 <path id="path7" fill="#f36861" d="m9.5 1v3.75c0 0.41256 0.33744 0.75 0.75 0.75h3.75z"/>
 <path id="path9" fill="#fff" d="m7.5091 6c-0.18002 0-0.35503 0.092061-0.39503 0.24549-0.15502 0.58303 0.014977 1.4883 0.30505 2.6135l-0.085 0.21996c-0.22 0.5523-0.5001 1.099-0.7451 1.59-1.005 2.01-1.7851 3.1-2.3051 3.172l-0.005-0.02047c-0.01-0.25061 0.44004-0.90014 1.0551-1.4116 0.065006-0.05625 0.34003-0.32221 0.34003-0.32221s-0.37003 0.19946-0.45504 0.25061c-0.76506 0.46542-1.1501 0.93595-1.2101 1.2479-0.01997 0.0982-0.00998 0.2108 0.070022 0.25662l0.20002 0.1023c0.53496 0.27102 1.19-0.44516 2.0651-2.015 0.89007-0.30114 2.0052-0.58264 3.0153-0.7319 0.90508 0.52678 1.9451 0.7774 2.3452 0.67 0.07501-0.02047 0.15501-0.08183 0.19501-0.13809 0.03001-0.05114 0.075-0.25572 0.075-0.25572s-0.075 0.1023-0.13501 0.13297c-0.25503 0.12275-1.0501-0.08183-1.8701-0.49099 0.71007-0.07671 1.3001-0.08183 1.6151 0.02047 0.40004 0.13297 0.40004 0.26594 0.39503 0.29663 0.0051-0.02487 0.02048-0.1126 0.02048-0.15319-0.01024-0.09689-0.03968-0.18461-0.11009-0.25584-0.14977-0.15345-0.51461-0.22507-1.0151-0.23528-0.37495 0-0.82491 0.03063-1.3149 0.10226-0.2201-0.133-0.4601-0.276-0.6452-0.455-0.475-0.4552-0.8751-1.0843-1.1202-1.79 0.015105-0.066512 0.030083-0.13302 0.04506-0.19954 0.070023-0.31711 0.12008-1.3604 0.12008-1.3604s-0.19501 0.78252-0.22502 0.90014c-0.020098 0.076594-0.04506 0.15843-0.075015 0.24026-0.15-0.537-0.225-1.0638-0.225-1.4575 0-0.11252 0.01-0.33244 0.040004-0.50121 0.015105-0.12281 0.060038-0.18932 0.1051-0.21996 0.09001 0.020458 0.19002 0.16366 0.29002 0.39893 0.090007 0.19946 0.085008 0.43473 0.085008 0.58304 0 0 0.10001-0.36312 0.075007-0.57282-0.0151-0.128-0.13-0.4553-0.385-0.4553zm0.089992 3.263c0.26 0.5371 0.6201 1.049 1.0952 1.458 0.1049 0.092 0.2149 0.179 0.33 0.26-0.8601 0.164-1.7602 0.394-2.6002 0.752 0.155-0.276 0.32-0.573 0.485-0.9 0.3249-0.629 0.525-1.1096 0.69-1.5699z"/>
 <path id="path11" fill-opacity=".10196" fill="#fff" d="m2.75 1c-0.4172 0-0.75 0.3328-0.75 0.75v0.6c0-0.4172 0.3328-0.75 0.75-0.75h6.75v-0.6z"/>
</svg>
